X: 25662
T: Martin Rochford's
R: reel
M: 4/4
K: Fmajor
DE|"F"F2 CD FGAc|"Bb"{/d} cAGc Ad (3DDD|"F"FDCD F2 dA|"C"PcAGc ADDE|
"F"F2 CD FGAc|"Bb"{/d} cAGc Ad (3DDD|"F"FDCD F2 dA|"C"PcAGc AD D2||
"F"f2 df edcd|"Dm" Ad{/e}dc Adde|"Bb" f2 af edcA|"C" cAGc AD D2|
"F" Mf2 df edcd|"Dm" Ad{/e}dc d3 e|"Bb" fa{/b}ag eg{/a}gd|"C" cAGc AD||

